X:1
T:St. Timothy, CM
T:St. Timothy, CM
T:Henry Williams Baker, 1875
T:Public Domain Courtesy of the Cyber Hymnal™
C:Henry Williams Baker, 1875
Z:Public Domain
Z:Courtesy of the Cyber Hymnal™
%%score ( 1 2 ) ( 3 4 )
L:1/8
Q:1/4=115
M:none
K:G
V:1 treble 
V:2 treble 
V:3 bass 
V:4 bass 
V:1
 [B,D]2 | [B,G]3 [DG] [DF]2 [DG]2 | [EA]2 [DB]2 [B,G]2 G2 | [DF]2 D2 [B,E]2 [^CE]2 | D6 [EA]2 | %5
 [^DB]3 [DB] [FA]2 [EG]2 | [Dc]2 [DB]2 [DA]2 [DA]2 | D2 (EF) [B,G]2 F2 | [B,G]6 |] %9
V:2
 x2 | x8 | x6 (B,^C) | x2 D2 x4 | D6 x2 | x8 | x8 | D2 C2 x (DC) x | x6 |] %9
V:3
 [G,,G,]2 | [G,,G,]3 [B,,G,] [D,A,]2 [B,,G,]2 | [C,G,]2 [D,F,]2 [G,,G,]2 [E,G,]2 | %3
 [D,A,]2 [F,,A,]2 [G,,G,]2 [A,,G,]2 | [D,F,]6 [C,E,]2 | [B,,F,]3 [B,,F,] [^D,B,]2 [E,B,]2 | %6
 [F,A,]2 G,2 [D,F,]2 [C,F,]2 | [B,,G,]2 [C,G,]2 [D,G,]2 [D,A,]2 | [G,,G,]6 |] %9
V:4
 x2 | x8 | x8 | x8 | x8 | x8 | x2 G,2 x4 | x8 | x6 |] %9

